img/svg/star.svg

<svg xmlns="http://www.w3.org/2000/svg" preserveAspectRatio="xMidYMid" width="19" height="18" viewBox="0 0 19 18"><defs><style>.cls-2 { fill: #ff6600; opacity: 0.5; }</style></defs><path d="M6.482 5.78l-5.965.658c-.215.026-.406.17-.477.387-.071.218 0 .444.159.588 1.773 1.612 4.437 4.025 4.437 4.025-.002 0-.731 3.512-1.215 5.855-.041.211.035.436.221.571.185.134.423.136.61.03 2.087-1.181 5.215-2.958 5.215-2.958l5.213 2.96c.19.104.429.102.613-.032.186-.135.263-.36.221-.57-.484-2.344-1.212-5.856-1.212-5.856s2.664-2.413 4.437-4.022c.159-.148.23-.374.159-.591-.071-.216-.261-.36-.476-.384-2.387-.267-5.967-.661-5.967-.661l-2.471-5.449c-.093-.194-.288-.331-.517-.331-.229 0-.424.138-.513.331-.99 2.179-2.472 5.449-2.472 5.449z" id="path-1" class="cls-2" fill-rule="evenodd"/></svg>

<svg xmlns="http://www.w3.org/2000/svg" xmlns:xlink="http://www.w3.org/1999/xlink" preserveAspectRatio="xMidYMid" width="19" height="18" viewBox="0 0 19 18">
  <defs>
    <style>

      .cls-2 {
        fill: #ff6600;
        opacity: 0.5;
      }
    </style>
  </defs>
  <path d="M6.482,5.780 C6.482,5.780 2.904,6.174 0.517,6.438 C0.302,6.464 0.111,6.608 0.040,6.825 C-0.031,7.043 0.040,7.269 0.199,7.413 C1.972,9.025 4.636,11.438 4.636,11.438 C4.634,11.438 3.905,14.950 3.421,17.293 C3.380,17.504 3.456,17.729 3.642,17.864 C3.827,17.998 4.065,18.000 4.252,17.894 C6.339,16.713 9.467,14.936 9.467,14.936 C9.467,14.936 12.597,16.713 14.680,17.896 C14.870,18.000 15.109,17.998 15.293,17.864 C15.479,17.729 15.556,17.504 15.514,17.294 C15.030,14.950 14.302,11.438 14.302,11.438 C14.302,11.438 16.966,9.025 18.739,7.416 C18.898,7.268 18.969,7.042 18.898,6.825 C18.827,6.609 18.637,6.465 18.422,6.441 C16.035,6.174 12.455,5.780 12.455,5.780 C12.455,5.780 10.972,2.510 9.984,0.331 C9.891,0.137 9.696,0.000 9.467,0.000 C9.238,0.000 9.043,0.138 8.954,0.331 C7.964,2.510 6.482,5.780 6.482,5.780 Z" id="path-1" class="cls-2" fill-rule="evenodd"/>
</svg>
